icons/svg/subway/subway_losangeles.svg

<?xml version="1.0" encoding="UTF-8" standalone="no"?>
<svg
   xmlns:dc="http://purl.org/dc/elements/1.1/"
   xmlns:cc="http://creativecommons.org/ns#"
   xmlns:rdf="http://www.w3.org/1999/02/22-rdf-syntax-ns#"
   xmlns:svg="http://www.w3.org/2000/svg"
   xmlns="http://www.w3.org/2000/svg"
   xmlns:sodipodi="http://sodipodi.sourceforge.net/DTD/sodipodi-0.dtd"
   xmlns:inkscape="http://www.inkscape.org/namespaces/inkscape"
   width="16"
   height="16"
   id="svg2"
   version="1.1"
   inkscape:version="0.91 r"
   sodipodi:docname="subway_losangeles.svg">
  <defs
     id="defs13">
    <linearGradient
       gradientTransform="matrix(0.08596979,0,0,0.08596979,0.67480439,1.9432845)"
       x1="87.101639"
       y1="121.69753"
       x2="87.260849"
       y2="1.2385538"
       id="l1"
       gradientUnits="userSpaceOnUse">
      <stop
         style="stop-color:#e92203;stop-opacity:1"
         offset="0"
         id="stop5" />
      <stop
         style="stop-color:#ff0000;stop-opacity:0.64628822"
         offset="1"
         id="stop7" />
    </linearGradient>
    <linearGradient
       gradientTransform="matrix(0.08400469,0,0,0.08400469,0.8422306,2.0814238)"
       x1="87.101639"
       y1="121.69753"
       x2="87.260849"
       y2="1.2385538"
       id="l1-2"
       gradientUnits="userSpaceOnUse">
      <stop
         style="stop-color:#e92203;stop-opacity:1"
         offset="0"
         id="stop5-8" />
      <stop
         style="stop-color:#ff0000;stop-opacity:0.64628822"
         offset="1"
         id="stop7-4" />
    </linearGradient>
  </defs>
  <sodipodi:namedview
     pagecolor="#ffffff"
     bordercolor="#666666"
     borderopacity="1"
     objecttolerance="10"
     gridtolerance="10"
     guidetolerance="10"
     inkscape:pageopacity="0"
     inkscape:pageshadow="2"
     inkscape:window-width="1332"
     inkscape:window-height="739"
     id="namedview11"
     showgrid="true"
     inkscape:zoom="45.254834"
     inkscape:cx="7.6504303"
     inkscape:cy="8.6099334"
     inkscape:window-x="34"
     inkscape:window-y="1024"
     inkscape:window-maximized="1"
     inkscape:current-layer="svg2"
     showguides="false"
     inkscape:snap-global="false">
    <sodipodi:guide
       position="0,0"
       orientation="0,580"
       id="guide2989" />
    <sodipodi:guide
       position="580,0"
       orientation="-580,0"
       id="guide2991" />
    <sodipodi:guide
       position="580,580"
       orientation="0,-580"
       id="guide2993" />
    <sodipodi:guide
       position="0,580"
       orientation="580,0"
       id="guide2995" />
    <sodipodi:guide
       position="0,0"
       orientation="0,580"
       id="guide2997" />
    <sodipodi:guide
       position="580,0"
       orientation="-580,0"
       id="guide2999" />
    <sodipodi:guide
       position="580,580"
       orientation="0,-580"
       id="guide3001" />
    <sodipodi:guide
       position="0,580"
       orientation="580,0"
       id="guide3003" />
    <inkscape:grid
       type="xygrid"
       id="grid3013"
       empspacing="5"
       visible="true"
       enabled="true"
       snapvisiblegridlinesonly="true" />
  </sodipodi:namedview>
  <metadata
     id="metadata2975">image/svg+xmlen<rdf:RDF>
  <cc:Work
     rdf:about="">
    <dc:format>image/svg+xml</dc:format>
    <dc:type
       rdf:resource="http://purl.org/dc/dcmitype/StillImage" />
    <dc:title />
  </cc:Work>
</rdf:RDF>
</metadata>
  <path
     sodipodi:type="inkscape:offset"
     inkscape:radius="0.44697046"
     inkscape:original="M 8 3.9863281 C 5.7850419 3.9863281 3.9863281 5.7818635 3.9863281 8 C 3.9863281 10.218027 5.7849322 12.013672 8 12.013672 C 10.216712 12.013672 12.013672 10.218027 12.013672 8 C 12.013672 5.7817536 10.216602 3.9863281 8 3.9863281 z "
     style="opacity:1;fill:#fefefe;fill-opacity:1"
     id="path4187"
     d="M 8,3.5390625 C 5.5434869,3.5390625 3.5390625,5.5402277 3.5390625,8 c 0,2.45966 2.0043119,4.460938 4.4609375,4.460938 2.458091,0 4.460938,-2.001499 4.460938,-4.460938 C 12.460938,5.5403505 10.457963,3.5390625 8,3.5390625 Z" />
  <path
     inkscape:connector-curvature="0"
     d="m 3.9859705,8 c 0,-2.2181365 1.7993454,-4.0141939 4.0143035,-4.0141939 2.216602,0 4.013756,1.7959475 4.013756,4.0141939 0,2.218027 -1.797044,4.014194 -4.013756,4.014194 C 5.7852062,12.014194 3.9859705,10.218027 3.9859705,8"
     id="path3" />
  <path
     inkscape:connector-curvature="0"
     style="fill:#fefefe;fill-opacity:1"
     d="m 10.423696,5.6108831 0,4.8163749 -1.0115216,0 0,-2.7189106 C 9.3730475,7.8151009 8.8234989,9.4015977 8.6416681,9.938102 L 8.1896673,8.589333 9.1837621,5.6108831 l 1.2399339,0 z m -3.5745777,0 -1.2387283,0 0,4.8163749 1.0085629,0 0,-2.7189106 c 0.050307,0.1382085 0.94861,2.7189106 0.94861,2.7189106 l 0.9019195,0 -1.6203641,-4.8163749 z"
     id="path7" />
</svg>

<svg width="16" height="16" viewBox="0 0 16 16" fill="none" xmlns="http://www.w3.org/2000/svg">
<path d="M8 3.53906C5.54349 3.53906 3.53906 5.54023 3.53906 8C3.53906 10.4597 5.54337 12.4609 8 12.4609C10.4581 12.4609 12.4609 10.4594 12.4609 8C12.4609 5.54035 10.458 3.53906 8 3.53906Z" fill="#FEFEFE"/>
<path d="M3.98596 8C3.98596 5.78187 5.78531 3.98581 8.00027 3.98581C10.2169 3.98581 12.014 5.78176 12.014 8C12.014 10.218 10.217 12.0142 8.00027 12.0142C5.7852 12.0142 3.98596 10.218 3.98596 8Z" fill="black"/>
<path d="M10.4237 5.61087V10.4272H9.4122V7.70833C9.37307 7.81509 8.82352 9.40158 8.64169 9.93809L8.18969 8.58932L9.18378 5.61087H10.4237ZM6.84914 5.61087H5.61041V10.4272H6.61898V7.70833C6.66928 7.84654 7.56759 10.4272 7.56759 10.4272H8.4695L6.84914 5.61087V5.61087Z" fill="#FEFEFE"/>
</svg>
